!!!COM: Palestrina, Giovanni Perluigi da
!!!OPR: Missa In festis Apostolorum (I)
!!!OMD: Credo
!!!OTL: Et vitam
**kern	**kern	**kern	**kern	**kern
*Ibass	*Itenor	*Itenor	*Icalto	*Icant
!Bassus	!Tenor 2	!Tenor 1	!Altus	!Cantus
*clefF4	*clefGv2	*clefGv2	*clefG2	*clefG2
*k[]	*k[]	*k[]	*k[]	*k[]
*D:dor	*D:dor	*D:dor	*D:dor	*D:dor
*M4/2	*M4/2	*M4/2	*M4/2	*M4/2
=169	=169	=169	=169	=169
1D	1r	0r	0r	0r
2C	1A	.	.	.
2AA	.	.	.	.
=170	=170	=170	=170	=170
1C	2G	1r	0r	0r
.	2E	.	.	.
1D	2.F	1d	.	.
.	4D	.	.	.
=171	=171	=171	=171	=171
1AA	2E	2c	1a	0r
.	2F	2A	.	.
1r	1E	1c	2g	.
.	.	.	2e	.
=172	=172	=172	=172	=172
0r	2D	1d	1f	0a
.	2d	.	.	.
.	2c	1A	1e	.
.	2A	.	.	.
=173	=173	=173	=173	=173
0r	4B	0r	2d	2g
.	8A	.	.	.
.	8B	.	.	.
.	2c	.	2.e	2e
.	1d	.	.	1f
.	.	.	4d	.
.	.	.	[2d	.
=174	=174	=174	=174	=174
0r	2.A	2r	2d]	1e
.	.	1A	2c#	.
.	4G	.	.	.
.	2F	.	2d	2d
.	2E	2G	4c	[2e
.	.	.	4B	.
=175	=175	=175	=175	=175
2r	1F	2c	1A	4e]
.	.	.	.	4d
2A	.	2A	.	1d
2G	2.E	2B	1r	.
2E	.	2G	.	2c#
.	4E	.	.	.
=176	=176	=176	=176	=176
1F	2D	1A	2r	1d
.	2A	.	2a	.
2E	2B	1e	2g	1r
2C	2c	.	2e	.
=177	=177	=177	=177	=177
2D	2A	2d	2f	1r
2E	2G	2B	1e	.
1AA	1A	1c	.	2r
.	.	.	[2e	2a
=178	=178	=178	=178	=178
1r	1E	1B	4e]	2g
.	.	.	4d	.
.	.	.	4B	2e
.	.	.	4c	.
1D	2r	2A	2d	1f
.	2F	[2B	2d	.
=179	=179	=179	=179	=179
2C	2G	2B]	2e	1e
2AA	2A	1A	2c	.
2BB	2D	.	2d	2d
[2C	[2G	2G	[2c	[2e
=180	=180	=180	=180	=180
2C]	2G]	0A	2c]	2e]
2D	2F	.	2A	1d
2AA	2E	.	2.e	.
2AA	2E	.	.	2c#
.	.	.	4e	.
=181	=181	=181	=181	=181
[0D	[0D	[0A	[0f#	[0d
=182	=182	=182	=182	=182
0D]	0D]	0A]	0f#]	0d]
=183	=183	=183	=183	=183
2.F	1r	0r	0r	0r
4G	.	.	.	.
2A	2.F	.	.	.
2D	.	.	.	.
.	4G	.	.	.
=184	=184	=184	=184	=184
2.F	2A	1r	0r	0r
.	2D	.	.	.
4G	.	.	.	.
2.A	2.F	2r	.	.
.	.	[2c	.	.
4G	4G	.	.	.
=185	=185	=185	=185	=185
4F	2A	2c]	0r	2.f
4E	.	.	.	.
1D	2F	2d	.	.
.	.	.	.	4g
.	1E	1e	.	[1a
2C#	.	.	.	.
=186	=186	=186	=186	=186
0D	2D	0A	2.f	2a]
.	2.F	.	.	2d
.	.	.	4g	.
.	.	.	2a	2.f
.	4G	.	.	.
.	2A	.	2d	.
.	.	.	.	4g
=187	=187	=187	=187	=187
0r	0D	0r	2.f	2.a
.	.	.	4g	4g
.	.	.	2.a	4f
.	.	.	.	4e
.	.	.	.	[2d
.	.	.	4g	.
=188	=188	=188	=188	=188
0r	0r	2.F	4f	4d]
.	.	.	4e	4c
.	.	.	2d	2f
.	.	4G	.	.
.	.	2A	2c	2e
.	.	2D	[2f	[2a
=189	=189	=189	=189	=189
1r	1r	2.F	4f]	4a]
.	.	.	4e	4g
.	.	.	1d	2f
.	.	4G	.	.
1AA	2r	2.A	.	1e
.	[2A	.	2c#	.
.	.	4G	.	.
=190	=190	=190	=190	=190
2.D	2A]	4F	[0d	2d
.	.	4E	.	.
.	2.d	1D	.	2a
4C	.	.	.	.
4BB-	.	.	.	2.dd
4AA	4c	.	.	.
[2GG	4B-	[2G	.	.
.	4A	.	.	4cc
=191	=191	=191	=191	=191
2GG]	2G	2G]	0d]	2b-
2D	2F#	2A	.	2a
1GG	1G	1B-	.	1g
=192	=192	=192	=192	=192
[0D	[0F#	[0A	[0d	[0a
=193	=193	=193	=193	=193
0D]	0F#]	0A]	0d]	0a]
==	==	==	==	==
*-	*-	*-	*-	*-
!!!CDT: 1525/^1526/-1594/2/2
!!!OCY: Italia
!!!AGN: Mass (Paraphrase)
!!!AST: renaissance, vocal
!!!ASW: Gregorian Mass
!!!PWK: Masses, Book Mantuan II
!!!RNB: Cadence finals: A,E
!!!YOR: Le Opere Complete, v. 19, p. 43
!!!YOO: Rome, Italy: Fratelli Scalera
!!!END: 1992//
!!!EED: John Miller
!!!YEC: Copyright 2000, John Miller
!!!YEN: United States of America
!!!YEM: Rights to all derivative electronic formats reserved.
!!!YEM: Refer to licensing agreement for further details.
!!!YEM: This file must be accompanied by the licensing agreement.
!!!YEM: A copy of the licensing agreement may be found at http://www.music-cog.ohio-state.edu/HumdrumDatabases/Palestrina/license.txt
!!!EMD: converted to Humdrum by Bret Aarden
